X:1
T:Ruby
C:Kaiser Chiefs
Z:All Rights Reserved
L:1/8
M:4/4
K:Eb
V:1 treble nm="Alto Saxophone" snm="A. Sax."
%%MIDI program 5
V:1
"Bbm" z4"Fm" z4 |"Eb" z4 z4 |"Bbm" z4"Fm" z4 |"Eb" z4 z4 |"Bbm" z4"Fm" z4 |"Eb" z4 z4 | %6
w: ||||||
w: ||||||
"Bbm" z4"Fm" z4 |"Eb" z2"Eb/Db" z2"Eb/C" z2"Eb/Bb" z2 |"Eb/Ab" z2"Eb/Gb" z2"Eb/F" z2"Eb" Bc |: %9
w: ||Let it|
w: |||
"Bbm" _dcdB- B2 FG |"Fm" AGAF- F2 AB |"Cm" cBcG- G2 AB |"Eb" cBcB- B2 Bc |"Bbm" _dcdB- BFFG | %14
w: ne- ver be said, _ _ That|ro- mance is dead _ Cause there's|so litt- le else _ oc- cu-|py- ing my head _ There is|no- thing I need _ ex- cept the|
w: lack of int'- rest _ To- mor-|row is can- celled _ Let the|clocks be re- set _ and the|pen- du- lums held _ Cause there's|no- thing at all * ex- cept the|
"Fm" AGAF- F2 AB |"Cm" cBcG- G2 AB |"Eb" cBcB- B4- | B4ze/e/ e/e/e/e/ |"Bbm" f/f/-f- fa"Fm" gagc | %19
w: air that I breathe _ But I'm|not real- ly fussed, _ Does- n't|mat- ter to me _|_ Ru- by, Ru- by, Ru- by,|Ru- by _ _ (A- haa, a- haa, A-|
w: space in be- tween _ Find- ing|out what you're called _ and re-|pea- ting your name *|||
"Eb" e4ze/e/ e/e/e/e/ |"Bbm" f/f/-f- fa"Fm" gagc |"Eb" e4z/e/e/e/ e/e/e/e/ | %22
w: haa) Do ya Do ya do- ya|Do ya _ _ (A- haa, A- haa, A-|haa) Now what ya do- ing do- ing|
w: |||
"Bbm" f/f/-f- fa"Fm" gagc |"Eb" e4ze/e/ e/e/e/e/ |"Bbm" f/f/-f- fa"Fm" gagc |1"Eb" e4 z2 Bc :|2 %26
w: to me _ _ (A- haa, A- haa, A-|haa) Ru- by, Ru- by, Ru- by|Ru- by _ _ (A- haa, A- haa, A-|haa) Due to|
w: ||||
"Eb" e4"Em" z4 |:"Fm"zc/B/ cc/B/ c2 AB |"Db" cBAF- F2 AB |"Bbm" cBAF- FAB(c- | %30
w: haa)|Could it be, could it be that you're|jo- king with me _ And you|don't real- ly see _ you with me|
w: ||||
"Eb" cB- B2)"Em" z4 ::"Fm"zc/B/ cc/B/ c2 AB |"Db" cBAF- F2 AB |"Bbm" cBAF- FABc- |1 %34
w: _ _ _||||
w: ||||
"Eb" cB- B2"Em" z4 :|2"Eb" cB- B2"Em" =B4 ||"Fm" c8- | c4"^NC"ze/e/ e/e/e/e/ | %38
w: |||* Ru- by, Ru- by, Ru- by,|
w: ||||
"Bbm" f/f/-f- fa"Fm" gagc |"Eb" e4ze/e/ e/e/e/e/ |"Bbm" f/f/-f- fa"Fm" gagc | %41
w: Ru- by _ _ (A- haa, a- haa, A-|haa) Do ya Do ya do- ya|Do ya _ _ (A- haa, A- haa, A-|
w: |||
"Eb" e4z/e/e/e/ e/e/e/e/ |"Bbm" f/f/-f- fa"Fm" gagc |"Eb" e4ze/e/ e/e/e/e/ | %44
w: haa Now what ya do- ing do- ing|to me _ _ (A- haa, A- haa, A-|haa) Ru- by, Ru- by, Ru- by|
w: |||
"Fm" f/f/-f- fa"Bbm" gagc |"Eb" e4ze/e/ e/e/e/e/ |"Bbm" f/f/-f- fa"Fm" gagc | %47
w: Ru- by _ _ (A- haa, A- haa, A-|haa) Do ya Do ya do- ya|Do ya _ _ (A- haa, A- haa, A-|
w: |||
"Eb" e4z/e/e/e/ e/e/e/e/ |"Bbm" f/f/-f- fa"Fm" gagc |"Eb" e4"E" z4 |"Fm" z4 z4 |] %51
w: haa) Now what ya do- ing do- ing|to me _ _ (A- haa, A- haa, A-|haa)||
w: ||||

